images/Black and White Collection 6.svg

<svg width="59" height="56" viewBox="0 0 59 56" fill="none" xmlns="http://www.w3.org/2000/svg">
<path d="M17.0807 5.39717C16.0821 6.05337 15.2506 6.93627 14.653 7.97457C14.0555 9.01287 13.7085 10.1778 13.6401 11.3756V18.1839C13.7085 19.3817 14.0555 20.5466 14.653 21.5849C15.2506 22.6233 16.0821 23.5061 17.0807 24.1623L24.1996 28.3823C26.0877 29.4795 27.6401 28.5793 27.6401 26.3848V3.31527C27.6401 1.12087 26.0877 0.22067 24.1996 1.31787L17.0807 5.39717Z" fill="#231F20"/>
<path d="M16.3391 25.6376C15.3055 25.1199 14.1634 24.8501 13.0051 24.8501C11.8468 24.8501 10.7047 25.1199 9.67108 25.6376L3.98088 28.8661C3.01128 29.4936 2.20388 30.3378 1.62358 31.3307C1.04338 32.3237 0.706476 33.4376 0.640076 34.583V42.4926C0.640076 44.5911 2.14758 45.452 3.98088 44.4028L23.2651 33.3724C25.0985 32.3232 25.0985 30.6148 23.2651 29.5655L16.3391 25.6376Z" fill="#231F20"/>
<path d="M42.1996 5.39717C43.1982 6.05337 44.0297 6.93627 44.6272 7.97457C45.2248 9.01287 45.5718 10.1778 45.6401 11.3756V18.1839C45.5718 19.3817 45.2248 20.5466 44.6272 21.5849C44.0297 22.6233 43.1982 23.5061 42.1996 24.1623L35.0667 28.3823C33.1786 29.4795 31.6401 28.5793 31.6401 26.3848V3.31527C31.6401 1.12087 33.1786 0.22067 35.0667 1.31787L42.1996 5.39717Z" fill="#231F20"/>
<path d="M42.292 25.6376C43.3693 25.1199 44.5596 24.8501 45.7668 24.8501C46.974 24.8501 48.1644 25.1199 49.2417 25.6376L55.1723 28.8661C56.1811 29.4943 57.0205 30.339 57.6228 31.332C58.2251 32.325 58.5736 33.4386 58.6401 34.583V42.4926C58.6401 44.5911 57.0831 45.452 55.1723 44.4028L35.0733 33.3724C33.1624 32.3232 33.1624 30.6148 35.0733 29.5655L42.292 25.6376Z" fill="#231F20"/>
<path d="M12.9459 55.0636C13.9801 55.5807 15.1228 55.8501 16.2817 55.8501C17.4407 55.8501 18.5834 55.5807 19.6176 55.0636L25.3111 51.8261C26.2798 51.1958 27.0855 50.3498 27.6637 49.356C28.2418 48.3621 28.5762 47.2481 28.6401 46.1034V38.2044C28.6401 36.1087 27.1455 35.249 25.3111 36.2968L6.01588 47.3124C4.18148 48.3602 4.18148 50.0663 6.01588 51.1141L12.9459 55.0636Z" fill="#231F20"/>
<path d="M29.6401 46.1099C29.7078 47.2518 30.0567 48.3628 30.6589 49.3536C31.2612 50.3445 32.0999 51.1876 33.1079 51.8154L39.0386 55.0641C40.1159 55.5809 41.3062 55.8501 42.5135 55.8501C43.7207 55.8501 44.911 55.5809 45.9883 55.0641L53.207 51.1039C55.1178 50.0568 55.1178 48.3518 53.207 47.3047L33.1079 36.2965C31.1971 35.2494 29.6401 36.1086 29.6401 38.2028V46.1099Z" fill="#231F20"/>
</svg>

<svg width="59" height="56" fill="none" xmlns="http://www.w3.org/2000/svg"><path d="M17.08 5.397a7.649 7.649 0 0 0-2.427 2.578 7.7 7.7 0 0 0-1.013 3.4v6.809a7.7 7.7 0 0 0 1.013 3.4 7.648 7.648 0 0 0 2.428 2.578l7.119 4.22c1.888 1.098 3.44.197 3.44-1.997V3.315c0-2.194-1.552-3.094-3.44-1.997l-7.12 4.08ZM16.34 25.638a7.446 7.446 0 0 0-6.669 0l-5.69 3.228a7.362 7.362 0 0 0-2.357 2.465 7.281 7.281 0 0 0-.984 3.252v7.91c0 2.098 1.508 2.959 3.34 1.91l19.285-11.03c1.834-1.05 1.834-2.758 0-3.807l-6.926-3.928ZM42.2 5.397a7.647 7.647 0 0 1 2.427 2.578 7.697 7.697 0 0 1 1.013 3.4v6.809a7.697 7.697 0 0 1-1.013 3.4 7.646 7.646 0 0 1-2.427 2.578l-7.133 4.22c-1.888 1.098-3.427.197-3.427-1.997V3.315c0-2.194 1.539-3.094 3.427-1.997l7.133 4.08ZM42.292 25.638a8.03 8.03 0 0 1 3.475-.788 8.03 8.03 0 0 1 3.475.788l5.93 3.228a7.487 7.487 0 0 1 2.45 2.466c.603.993.952 2.107 1.018 3.251v7.91c0 2.098-1.557 2.959-3.468 1.91l-20.099-11.03c-1.91-1.05-1.91-2.758 0-3.807l7.219-3.928ZM12.946 55.064a7.46 7.46 0 0 0 6.672 0l5.693-3.238a7.37 7.37 0 0 0 2.353-2.47 7.275 7.275 0 0 0 .976-3.253v-7.899c0-2.095-1.495-2.955-3.329-1.907L6.016 47.312c-1.835 1.048-1.835 2.754 0 3.802l6.93 3.95ZM29.64 46.11a7.044 7.044 0 0 0 1.019 3.244 7.494 7.494 0 0 0 2.449 2.461l5.93 3.25a8.042 8.042 0 0 0 3.476.785c1.207 0 2.397-.27 3.474-.786l7.219-3.96c1.91-1.047 1.91-2.752 0-3.8l-20.1-11.008c-1.91-1.047-3.467-.187-3.467 1.907v7.907Z" fill="#231F20"/></svg>
